X:610
T: MAEDCHEN WENN ICH DICH ERBLICKE
N: E0566B
O: Europa, Mitteleuropa, Deutschland, Hessen, Odenwald
R: Liebes - Lied
M: 4/4
L: 1/8
K: F
 | F2A2c2dc | B2G2F2C2 |
FFAAc2BA | G4z4 |
B2d2f2ed | dcc2fAA2 |
GABcd2cB | A8

@@@ Tune index: 4260
